<?xml version="1.0" encoding="UTF-8"?>
<map version="1.10" tiledversion="1.11.2" orientation="orthogonal" renderorder="right-down" width="64" height="64" tilewidth="32" tileheight="32" infinite="0" nextlayerid="2" nextobjectid="1">
 <tileset firstgid="1" name="T_TempleTile_00" tilewidth="32" tileheight="32" tilecount="1" columns="1">
  <image source="../../../../Downloads/Telegram Desktop/Images_grouped_1/Sprite/T/T_TempleTile_00.png" width="32" height="32"/>
 </tileset>
 <tileset firstgid="2" source="TiledMap/T_ForestTiles_7.tsx"/>
 <tileset firstgid="3" source="TiledMap/T_ForestTiles_2.tsx"/>
 <tileset firstgid="4" source="TiledMap/T_TempleTile_1.tsx"/>
 <tileset firstgid="5" source="TiledMap/T_TempleTile_3.tsx"/>
 <tileset firstgid="6" source="TiledMap/T_TempleTile_4.tsx"/>
 <layer id="1" name="Tile Layer 1" width="64" height="64">
  <data encoding="csv">
5,5,5,5,5,5,5,5,5,5,5,5,5,5,1,1,1,1,1,1,1,1,1,1,1,1,1,1,1,1,1,1,1,1,1,5,5,1,1,1,1,1,1,5,1,1,1,6,1,1,1,1,1,1,6,6,5,6,6,1,1,1,1,1,
5,6,6,5,5,5,5,5,5,2,2,2,2,2,2,1,1,1,1,1,1,2,1,1,1,1,1,1,6,6,6,1,1,1,1,1,1,1,1,1,1,1,1,1,1,1,1,6,6,2,1,1,6,6,6,6,5,5,6,6,1,1,1,1,
5,6,5,6,5,5,5,5,5,2,1,1,1,4,4,4,4,4,4,4,4,5,5,5,5,1,1,1,1,1,1,1,1,1,1,1,1,1,1,1,1,1,1,1,1,1,1,1,6,1,6,6,6,6,6,6,1,5,5,5,1,1,1,1,
5,5,6,6,5,5,5,5,4,4,4,1,4,4,4,4,4,4,4,4,4,4,4,4,4,6,6,4,3,3,4,1,1,1,1,1,1,1,1,1,1,1,1,1,1,6,6,3,3,6,6,6,6,1,6,6,1,1,6,5,1,1,5,5,
5,2,6,6,5,5,4,4,4,5,4,1,4,1,1,1,1,1,1,1,1,1,1,1,1,1,4,4,6,1,4,4,1,1,5,4,4,4,3,3,6,6,6,6,1,6,1,6,6,6,6,6,1,6,1,6,5,5,5,1,1,2,5,5,
5,6,2,5,5,5,5,4,5,4,4,1,4,4,4,5,5,2,2,5,5,5,6,6,5,4,4,6,6,6,6,5,4,6,6,6,6,6,6,4,4,4,4,6,1,6,6,5,6,6,6,6,5,5,5,5,5,3,1,1,5,5,5,5,
5,6,2,5,2,5,5,5,4,4,1,1,1,5,5,4,4,4,4,4,4,6,6,6,6,6,6,6,4,6,6,6,6,6,6,6,6,6,6,6,6,6,2,1,1,6,2,6,6,6,6,2,6,6,6,6,5,3,1,1,5,3,3,5,
5,2,2,5,5,5,5,5,4,1,4,4,1,1,4,4,4,4,4,4,4,6,6,6,6,6,6,6,6,3,1,1,6,4,4,4,1,4,4,4,4,1,2,1,1,2,4,4,4,6,6,6,6,5,6,5,5,5,1,1,5,1,1,5,
5,2,2,5,5,2,5,4,2,1,2,1,1,4,2,2,3,2,5,6,6,6,4,6,3,4,4,4,4,1,1,1,1,1,1,1,1,3,3,5,1,1,4,1,1,2,4,4,4,4,6,6,6,1,6,5,5,5,1,1,5,1,1,5,
5,5,5,5,5,5,5,3,5,1,4,1,1,4,4,4,4,4,4,4,4,5,5,5,5,5,6,6,6,1,4,4,4,5,1,5,5,5,1,1,4,4,4,6,4,4,4,4,4,4,6,6,6,6,6,1,5,4,1,1,5,1,1,5,
5,3,3,5,5,5,4,4,4,1,5,1,4,4,4,4,5,5,5,5,5,5,5,6,6,6,6,6,4,1,4,1,1,5,1,5,1,1,4,4,4,4,4,6,6,5,5,5,3,3,1,6,6,3,3,6,3,3,5,5,5,1,1,5,
5,3,2,3,3,3,4,4,5,1,2,4,4,4,4,4,4,4,5,4,6,5,5,6,6,4,4,2,2,1,1,1,5,4,1,1,1,5,4,6,6,6,6,5,5,3,3,3,3,1,5,6,6,1,6,3,3,5,5,5,1,3,1,5,
5,3,3,3,3,4,4,4,1,1,4,5,6,6,2,2,6,6,5,5,4,6,5,6,6,2,2,4,4,4,4,5,3,4,6,6,6,6,6,4,6,6,3,3,3,3,3,2,3,1,1,1,6,5,5,4,5,5,5,5,1,1,1,5,
5,3,3,5,5,4,5,4,1,4,5,5,5,5,5,5,5,5,5,5,6,6,5,6,4,4,2,2,2,4,6,6,6,5,5,3,3,3,5,6,4,5,3,3,3,3,3,3,3,1,5,5,5,5,5,4,3,3,5,1,1,1,5,5,
6,6,6,6,6,6,5,6,6,6,5,5,6,6,6,6,6,6,6,2,6,6,5,5,4,4,5,5,6,6,5,5,5,5,5,5,5,5,6,4,4,4,5,3,3,2,2,2,3,1,5,5,5,5,5,4,6,6,5,5,6,6,1,1,
6,6,6,6,6,6,6,6,6,5,5,5,5,4,6,6,5,5,5,5,6,6,4,5,5,4,5,5,5,5,5,5,5,6,6,6,6,5,5,4,4,4,5,5,3,3,3,3,3,1,1,5,5,1,3,4,1,6,6,6,6,1,1,1,
6,5,6,6,1,1,5,1,1,5,6,5,5,5,4,3,6,4,6,3,3,3,3,3,3,6,5,6,6,6,5,6,6,5,6,5,5,5,5,4,4,6,5,6,3,3,3,3,3,1,3,5,5,5,1,4,5,3,6,6,6,6,1,1,
5,5,2,1,5,4,1,2,2,5,5,5,5,3,5,6,6,6,6,6,6,6,6,3,4,5,5,3,6,6,6,6,6,5,5,5,5,5,1,5,4,5,3,5,3,3,3,5,2,3,1,5,5,5,1,4,5,6,5,5,6,6,1,1,
5,5,2,1,5,4,5,2,6,6,6,5,5,5,5,6,2,6,6,6,6,6,6,6,6,3,3,6,6,6,4,4,5,5,5,5,5,5,5,5,5,3,5,5,5,5,5,5,5,3,1,3,5,5,1,3,4,5,5,6,6,6,1,1,
5,5,2,1,5,5,6,2,6,2,5,6,5,6,6,6,6,6,6,6,6,6,4,6,3,3,5,5,4,4,4,6,5,5,3,5,5,5,5,3,3,5,5,5,5,6,6,6,5,6,1,3,5,5,5,3,4,5,5,6,6,6,1,1,
5,5,1,6,5,5,5,5,5,5,5,2,5,5,5,5,5,4,5,5,6,6,6,6,3,6,6,6,6,6,5,5,5,5,6,3,3,3,3,3,3,5,5,2,6,6,6,6,6,6,1,3,5,5,5,5,1,4,5,6,6,6,1,1,
6,5,6,4,4,5,5,5,5,5,6,6,6,5,5,5,5,6,6,6,4,4,4,4,4,4,4,4,2,2,5,5,5,4,1,5,5,5,5,5,5,5,2,2,2,1,5,6,6,6,1,5,1,5,5,5,5,4,5,6,6,1,1,1,
6,5,6,6,6,5,6,5,5,5,6,6,6,6,6,2,5,5,2,5,4,4,4,4,4,5,5,2,5,3,5,5,5,5,5,1,4,5,5,6,6,6,6,6,2,1,1,5,4,6,1,1,1,5,3,5,5,3,4,6,6,1,1,1,
5,5,1,4,5,2,6,5,5,5,4,4,4,5,5,5,5,5,5,5,4,4,4,5,5,5,5,5,5,3,6,5,5,5,5,5,5,5,4,1,6,6,6,2,1,1,1,5,4,6,1,1,1,5,5,1,1,5,5,4,3,6,1,6,
5,5,1,5,5,4,4,6,5,5,5,6,6,6,5,6,6,6,5,6,6,6,6,5,4,4,4,4,4,3,4,4,4,4,3,3,5,5,5,1,6,6,6,6,6,1,6,6,6,6,1,1,1,5,5,4,4,5,5,4,1,6,6,6,
4,4,4,4,4,4,4,4,4,4,4,4,4,4,4,4,4,4,4,4,4,4,4,4,6,6,6,6,3,4,4,4,4,3,3,1,5,5,5,5,1,1,1,1,6,6,6,6,6,2,2,1,2,5,5,4,5,5,4,5,3,3,4,6,
5,5,5,5,2,5,5,4,5,4,5,3,2,6,6,6,6,6,5,5,6,3,5,5,5,5,3,3,3,3,5,5,5,5,5,5,5,5,1,4,1,1,4,1,4,1,6,6,6,2,2,5,5,5,5,3,5,5,5,5,4,4,6,6,
5,5,5,5,2,5,5,6,6,6,6,6,2,6,6,6,6,6,6,5,6,3,6,6,6,6,4,3,3,5,5,5,5,5,5,5,5,5,1,1,1,3,4,4,4,3,5,5,5,2,5,5,1,2,5,1,5,1,4,5,4,6,6,6,
5,5,5,5,2,5,5,4,4,4,4,4,4,4,4,4,3,3,3,5,4,5,5,4,2,4,4,4,4,4,4,4,1,4,4,4,4,4,4,4,4,3,4,4,4,4,4,4,5,2,5,5,1,1,5,5,1,1,4,4,4,6,4,6,
5,5,5,5,5,5,5,5,5,2,5,4,4,4,2,4,4,4,5,5,4,4,5,5,4,4,4,4,4,4,4,4,4,4,4,4,4,4,4,4,4,4,4,4,4,4,4,4,5,1,1,5,5,1,5,5,1,3,3,5,4,3,6,6,
5,5,2,1,5,1,1,1,5,5,5,5,5,5,5,4,4,4,5,5,5,4,5,5,4,4,4,4,4,4,4,4,4,4,4,4,6,6,6,4,4,4,4,4,4,4,4,2,1,1,1,1,5,1,5,1,1,1,3,4,6,6,6,6,
5,2,2,5,2,5,5,5,1,5,5,5,5,5,5,5,5,4,5,5,4,4,4,3,3,4,5,5,5,5,2,2,4,5,5,5,5,5,5,3,5,5,4,6,4,4,4,4,4,1,1,5,5,5,5,5,5,3,4,4,6,6,6,6,
5,2,2,5,5,5,3,5,5,1,5,5,4,4,4,4,4,6,6,4,4,4,3,3,3,3,5,5,5,5,5,5,2,5,5,3,4,5,5,5,5,5,4,4,5,4,5,4,4,1,3,5,5,5,5,5,3,3,4,4,6,6,6,6,
5,5,5,5,5,5,5,2,1,1,3,4,4,5,3,6,3,3,6,6,6,6,3,4,3,3,4,5,5,5,5,5,5,4,5,3,5,5,5,5,5,2,4,4,5,4,4,4,1,1,5,5,1,1,4,5,4,4,4,4,4,6,6,6,
5,5,5,5,5,4,4,5,1,5,5,4,5,3,3,4,6,6,6,6,6,6,3,3,3,6,6,6,6,4,4,4,4,4,5,5,5,5,5,5,2,2,3,4,4,4,4,4,2,5,5,5,1,4,5,4,4,3,1,5,4,1,6,6,
5,5,5,5,5,4,4,4,1,5,5,4,5,5,6,6,6,5,4,4,5,4,4,6,6,6,4,4,6,4,4,4,5,5,4,3,3,4,4,4,4,4,3,4,4,6,4,4,4,4,4,4,2,5,4,4,4,4,4,4,4,4,1,6,
5,5,5,5,5,4,5,3,6,5,5,4,5,6,6,5,6,6,4,4,5,5,4,4,4,4,4,6,6,4,6,5,4,3,4,4,4,5,5,5,5,5,5,5,5,6,6,5,4,4,4,4,5,4,4,4,4,4,4,5,4,4,4,6,
5,2,5,2,5,4,4,3,6,6,6,6,6,3,3,3,5,6,6,6,6,6,6,6,6,6,6,4,5,5,6,4,3,3,5,4,4,4,5,4,4,5,5,5,5,5,5,4,4,4,6,4,4,4,4,5,4,4,1,5,2,4,4,6,
5,5,5,5,5,5,5,3,6,5,5,4,5,5,4,4,4,4,5,4,4,4,1,1,4,4,4,4,5,5,6,6,5,5,5,5,4,4,4,4,4,4,4,4,4,4,4,4,4,4,4,4,4,6,6,5,4,5,1,5,6,6,6,6,
5,5,5,5,5,5,4,3,6,6,4,4,4,4,4,5,5,4,4,4,4,5,5,5,4,4,4,4,5,5,5,6,6,5,5,5,5,5,5,4,4,6,3,3,3,3,3,3,3,5,5,4,5,5,4,5,4,1,4,5,6,4,4,6,
5,5,2,5,5,4,5,3,4,5,5,5,5,5,1,3,4,4,1,1,4,4,4,4,6,6,6,6,6,6,6,6,6,5,5,5,5,4,5,5,5,5,5,5,5,4,4,4,4,4,4,6,5,5,5,5,2,1,6,6,6,3,4,4,
5,5,5,5,5,4,5,5,5,1,5,5,5,5,1,5,1,5,1,2,5,5,1,3,3,3,3,5,5,5,5,5,5,5,5,5,3,3,5,5,4,5,5,5,5,1,1,1,1,1,1,1,5,5,5,5,2,5,6,6,6,6,4,4,
5,5,5,5,5,5,2,5,5,5,1,5,5,1,1,5,5,5,1,2,5,5,3,3,3,3,6,6,1,1,1,5,1,2,2,3,3,1,1,1,1,1,1,1,1,5,5,1,1,1,5,5,5,5,5,5,2,5,4,6,5,6,6,6,
5,5,5,5,5,5,5,5,5,5,3,1,3,1,1,5,5,1,1,2,5,5,3,3,3,3,3,3,5,2,2,5,2,2,2,4,3,4,5,5,2,5,1,1,5,5,5,5,5,5,5,5,5,5,1,5,2,2,4,6,5,6,2,2,
5,5,5,3,5,5,4,5,5,5,3,3,1,1,1,3,5,5,1,2,5,5,4,5,6,6,6,5,5,2,2,2,5,2,1,4,5,5,4,4,4,1,1,5,5,2,5,5,3,3,5,5,5,4,1,5,2,2,5,6,6,6,5,2,
5,5,5,5,5,1,4,4,4,5,3,3,5,1,1,3,5,5,5,5,5,5,5,5,5,5,5,5,5,5,2,2,5,4,1,5,5,4,1,6,4,1,5,1,2,5,5,5,3,3,5,5,1,4,4,5,5,5,5,4,6,5,5,2,
5,5,5,5,5,5,4,4,4,5,3,3,5,1,5,5,3,5,5,5,5,5,5,5,5,3,3,5,5,5,2,4,5,5,1,5,5,5,5,6,1,1,5,3,1,1,5,5,5,5,5,3,4,4,4,4,4,6,3,4,5,2,5,2,
5,5,5,5,5,5,4,5,5,5,3,3,5,1,5,5,3,5,1,1,2,5,2,3,3,3,5,5,5,5,4,4,2,5,1,2,1,1,1,6,1,1,5,5,5,5,5,1,1,5,5,4,4,4,4,4,4,6,3,4,5,5,5,5,
5,5,2,5,1,1,4,5,1,5,5,5,3,1,5,5,5,5,3,3,3,3,3,3,1,1,1,1,1,1,1,1,1,5,5,5,1,1,5,6,1,1,1,1,1,1,1,1,4,4,1,1,1,4,4,4,4,6,6,4,5,1,1,5,
5,5,2,5,1,2,1,5,5,1,3,5,1,5,5,5,3,5,5,5,5,5,5,5,5,5,4,4,2,4,5,5,2,2,1,5,5,5,6,6,1,5,5,4,4,1,1,3,3,1,1,5,5,5,4,4,2,4,6,6,6,5,1,1,
5,2,5,5,2,1,5,5,5,3,1,1,1,3,5,5,5,5,6,5,5,5,5,5,5,5,5,3,3,4,4,4,4,5,5,6,6,4,4,5,1,1,4,3,5,1,6,3,4,4,5,3,5,4,4,5,2,4,5,5,5,1,1,1,
5,5,5,5,5,5,5,5,5,3,3,5,5,5,3,5,5,5,6,6,6,5,5,5,5,5,5,5,3,5,3,3,5,6,6,6,5,1,1,5,5,1,5,5,5,1,5,5,4,4,5,5,5,4,5,2,2,4,4,4,1,1,5,5,
5,5,5,5,5,5,5,5,5,3,3,3,3,5,3,5,3,3,5,5,5,5,5,5,5,3,5,3,5,5,5,5,5,5,6,5,5,1,1,1,1,1,6,6,5,1,5,5,5,4,4,5,5,5,5,2,5,4,2,4,1,1,5,2,
5,5,5,5,5,5,5,5,5,3,3,3,5,5,5,5,3,3,5,2,5,5,5,3,3,3,5,3,5,4,5,3,2,3,1,1,5,1,5,2,1,1,6,6,1,1,5,1,2,2,4,4,2,5,5,2,5,4,2,4,4,1,5,5,
3,5,5,5,5,5,5,3,5,5,5,5,3,5,3,3,5,3,5,5,5,2,5,5,3,5,3,5,4,4,5,5,1,1,5,1,1,1,1,1,1,1,5,6,3,1,5,1,2,5,5,5,2,2,5,5,5,4,4,4,4,1,5,4,
3,5,1,3,5,3,5,5,5,5,5,5,5,5,5,5,2,5,5,5,5,5,5,5,5,5,5,5,5,5,4,5,1,1,4,1,4,1,1,1,2,1,1,3,3,1,4,1,2,5,5,5,5,4,5,5,5,5,4,4,2,1,1,4,
3,5,1,2,5,5,5,5,6,5,4,4,4,4,4,3,5,2,5,4,4,4,4,4,4,6,5,5,1,5,4,5,4,3,2,1,4,1,5,1,2,5,4,3,4,1,4,5,5,1,1,1,1,1,1,1,1,5,4,4,5,4,4,4,
3,1,2,5,5,3,4,4,6,6,6,5,5,5,5,5,5,5,5,5,5,5,5,5,5,6,5,4,4,4,4,5,4,4,3,4,4,1,1,1,5,4,3,3,1,1,1,1,1,1,1,1,1,1,1,2,1,5,5,4,4,4,5,4,
3,1,5,4,4,4,4,4,4,4,4,6,5,5,5,2,5,5,6,5,5,3,5,5,5,6,6,6,6,6,5,1,5,5,5,5,5,5,1,1,1,1,1,1,3,1,1,1,1,1,1,1,1,5,1,5,5,5,5,4,1,1,2,5,
1,1,5,5,5,5,4,4,4,4,5,5,5,5,5,5,5,6,6,5,5,5,5,5,4,4,4,4,5,4,4,4,5,3,3,3,3,3,3,3,3,1,1,1,3,3,3,5,3,3,2,2,2,1,1,4,4,4,4,4,5,1,2,2,
1,5,3,5,5,5,4,4,5,5,5,3,3,3,3,5,5,5,5,5,2,5,5,5,5,5,5,4,4,4,4,4,5,3,3,2,2,3,3,2,2,3,3,3,1,1,5,3,2,2,2,4,4,1,4,2,4,4,4,4,4,1,2,5,
1,5,5,5,5,5,5,5,5,5,1,1,2,1,1,1,4,4,1,1,3,5,5,5,2,5,5,5,4,5,3,4,5,5,5,3,5,3,2,2,2,3,1,1,1,1,1,1,1,1,1,1,1,1,2,2,4,4,4,1,1,1,5,5,
1,3,1,4,4,1,1,1,3,3,1,1,1,1,1,1,4,4,4,1,1,1,1,1,1,1,1,4,4,4,1,4,4,1,1,1,1,1,1,1,2,2,1,1,1,1,1,1,1,1,2,2,2,4,4,4,5,4,1,1,1,1,5,5,
1,1,4,4,1,3,3,3,1,1,1,1,1,1,3,3,1,4,4,1,1,1,1,4,4,1,1,1,1,4,4,4,4,5,1,1,1,1,1,3,3,3,2,2,3,3,3,3,2,2,2,4,4,4,4,4,4,1,1,4,4,4,1,1
</data>
 </layer>
</map>
