<?xml version="1.0" encoding="UTF-8"?>
<map version="1.10" tiledversion="1.11.2" orientation="orthogonal" renderorder="right-down" width="64" height="64" tilewidth="32" tileheight="32" infinite="0" nextlayerid="2" nextobjectid="1">
 <tileset firstgid="1" source="T_TempleTile_1.tsx"/>
 <tileset firstgid="2" source="T_TempleTile_3.tsx"/>
 <tileset firstgid="3" source="T_TempleTile_4.tsx"/>
 <tileset firstgid="4" source="T_ForestTiles_7.tsx"/>
 <layer id="1" name="Tile Layer 1" width="64" height="64">
  <data encoding="csv">
1,2,2,2,1,1,1,1,1,1,2,2,2,3,3,3,3,3,3,3,3,3,3,3,3,3,3,3,3,3,3,3,3,3,3,3,3,3,3,3,2,2,2,2,2,2,3,3,3,3,3,3,3,3,3,3,3,3,3,3,3,3,3,3,
1,1,1,1,1,1,2,1,1,1,2,2,3,3,3,3,3,3,3,3,3,3,1,1,1,1,1,1,1,1,3,3,1,1,1,1,1,1,1,1,1,1,1,1,1,1,1,1,1,1,1,1,2,2,3,3,3,3,3,3,3,3,3,3,
1,1,1,1,1,1,1,1,1,1,3,3,2,1,1,1,3,3,3,3,3,3,3,3,3,3,3,3,3,3,3,3,3,3,3,3,3,4,3,3,3,3,3,3,3,3,3,3,3,3,3,3,2,2,2,3,3,3,3,3,4,3,4,3,
1,2,2,1,1,4,3,3,3,3,1,2,2,2,2,2,2,2,4,3,3,3,1,2,1,1,4,3,3,2,2,2,2,3,3,3,3,3,3,3,3,3,3,3,3,3,3,3,3,3,3,3,3,2,3,2,2,3,3,3,3,3,3,1,
1,1,1,2,3,3,1,1,1,1,2,1,3,1,3,2,2,3,2,3,3,3,3,2,1,2,2,2,2,2,2,2,2,2,2,2,2,1,1,1,1,1,1,3,1,1,1,1,1,1,1,1,3,2,1,1,2,2,3,1,1,3,2,2,
1,1,3,3,3,3,1,1,1,1,1,3,3,3,2,2,2,2,2,2,2,1,2,2,2,2,1,1,3,1,3,1,3,4,2,2,2,2,2,1,1,4,1,1,3,1,1,1,2,2,2,2,2,2,1,1,1,1,2,2,2,2,1,2,
2,2,3,4,3,3,1,2,4,3,3,3,1,2,2,1,3,1,3,2,2,2,2,2,2,2,3,4,3,3,3,3,3,2,2,2,1,2,2,2,2,2,2,2,3,1,1,1,2,2,2,4,3,3,1,1,1,3,3,1,1,2,2,2,
1,1,3,3,3,1,3,3,3,1,1,3,2,3,3,3,3,3,1,1,1,2,2,2,2,3,1,3,3,3,1,3,3,2,2,2,2,2,4,2,2,2,2,2,3,1,1,1,2,2,1,1,3,1,3,1,1,3,3,3,1,3,3,3,
1,1,3,3,3,3,1,1,1,1,1,3,2,4,3,3,3,3,3,3,3,2,4,3,3,3,3,3,1,3,1,3,3,1,2,2,2,2,2,2,2,2,2,2,3,1,1,1,2,1,1,1,3,1,2,2,3,3,3,3,1,3,3,3,
1,1,3,3,3,3,1,1,1,1,3,1,2,2,3,3,1,1,1,3,2,2,1,1,2,2,2,2,2,2,2,2,3,1,2,2,2,2,2,2,1,1,2,1,2,2,2,2,2,1,1,1,3,1,2,2,2,3,3,3,1,3,3,3,
1,1,3,3,3,3,3,1,1,1,3,2,2,3,2,2,3,3,2,3,2,2,2,2,2,1,1,3,2,1,2,2,2,2,2,2,2,2,2,2,2,2,2,2,2,2,2,2,2,2,2,2,2,2,2,4,2,3,3,3,1,3,3,3,
1,1,3,3,3,3,2,3,1,1,3,3,2,3,1,1,4,2,3,3,2,2,2,2,2,2,2,2,2,2,3,1,3,2,2,2,2,2,2,2,2,2,2,2,2,2,2,4,2,1,1,1,3,1,2,2,2,3,3,3,3,3,3,3,
1,1,3,3,3,4,2,1,1,1,3,2,2,3,2,2,2,2,2,3,3,2,2,2,2,2,2,2,2,2,3,1,4,2,2,2,2,2,4,2,1,1,2,1,3,3,1,1,1,1,1,1,2,2,2,2,2,3,3,3,3,3,3,3,
1,1,3,3,3,3,1,3,1,1,3,3,3,3,2,2,3,2,2,3,2,3,3,3,2,2,2,2,4,2,2,2,3,3,1,1,1,1,1,1,1,2,1,1,3,3,1,3,1,1,2,2,2,1,2,2,2,3,3,3,4,3,3,3,
2,3,3,3,3,1,3,3,1,1,3,1,3,1,3,3,2,3,3,2,2,2,1,1,3,3,3,3,2,2,2,2,3,3,1,1,1,1,1,1,1,2,1,4,2,3,2,2,3,2,2,3,1,2,2,3,4,3,3,3,3,3,3,3,
3,3,3,1,3,1,3,3,1,1,2,2,3,2,2,4,2,3,3,2,2,1,1,1,1,2,2,3,3,2,2,2,2,4,2,1,1,1,1,1,1,2,2,2,2,2,2,1,2,2,1,3,2,4,2,3,3,3,3,3,1,3,3,3,
3,3,3,1,3,2,1,3,2,2,2,2,3,2,3,3,3,3,3,3,1,1,1,1,1,2,2,2,2,3,3,2,2,2,2,2,2,2,2,2,2,2,2,2,2,1,4,1,2,2,2,2,2,2,2,3,3,3,3,3,1,3,3,4,
3,3,3,2,4,2,2,3,2,2,2,2,2,3,2,2,3,2,3,3,1,1,4,1,1,2,4,2,2,2,2,3,3,2,2,2,1,1,4,1,1,1,1,3,1,1,3,1,3,1,1,3,2,2,1,3,3,3,3,3,1,2,3,3,
3,3,3,2,3,1,1,1,3,3,1,4,2,3,1,3,3,2,2,2,2,2,1,1,1,1,1,3,3,2,2,2,2,3,3,2,1,1,2,2,2,2,2,3,1,1,3,1,3,1,2,3,2,2,1,1,3,3,3,3,2,2,3,3,
3,3,3,1,1,3,1,1,3,2,3,1,2,3,3,3,1,3,2,2,3,2,1,1,1,1,2,3,3,1,1,3,3,2,2,3,3,2,2,2,1,1,3,1,1,1,3,1,3,1,2,3,4,2,1,1,3,3,3,2,2,2,3,3,
3,1,3,1,1,3,3,1,3,3,3,1,3,2,1,3,2,3,3,2,2,2,2,1,1,2,2,3,3,1,1,3,3,2,2,2,1,3,3,3,1,1,3,4,1,1,3,1,3,1,2,2,1,2,2,2,2,2,2,2,2,3,3,3,
3,3,1,4,1,3,1,3,3,2,3,2,2,2,2,4,2,3,3,1,1,2,2,2,2,2,2,1,3,3,1,3,3,2,2,2,2,2,2,1,3,3,3,1,1,1,1,2,4,2,2,2,2,2,4,2,2,4,3,2,2,3,3,3,
3,3,1,1,2,3,2,4,3,2,2,3,3,3,3,3,2,1,3,1,2,1,3,1,2,1,2,1,3,3,1,3,1,2,2,2,2,4,1,1,1,2,3,3,2,2,2,2,3,2,2,2,2,2,2,1,2,3,3,1,3,3,3,3,
3,3,1,1,2,3,3,1,3,2,2,4,1,3,3,1,2,2,3,1,2,3,3,1,1,1,4,1,3,3,1,3,2,2,2,2,2,2,2,1,1,2,2,2,3,3,2,2,2,2,2,2,2,2,2,1,1,3,3,1,3,3,4,3,
3,3,1,1,2,3,3,2,3,1,2,1,3,3,1,3,3,3,2,4,2,3,2,3,1,2,4,1,3,3,1,3,2,3,3,3,3,3,3,3,3,3,3,3,3,2,3,3,2,2,2,2,2,2,2,4,1,3,3,1,3,3,3,3,
3,3,1,4,1,3,3,1,3,1,2,2,2,2,1,1,2,2,3,3,3,3,2,2,1,2,2,1,3,3,3,3,3,2,2,2,2,2,2,3,1,3,2,2,2,3,3,2,3,3,2,2,2,2,2,4,1,3,3,1,3,3,3,3,
3,3,1,1,1,3,1,3,4,3,3,2,2,2,4,4,2,3,2,2,1,3,3,3,2,2,2,3,3,4,2,2,2,2,2,3,3,3,3,3,3,3,3,3,3,3,3,3,3,3,3,4,3,2,2,1,3,3,3,1,3,3,3,3,
3,3,1,2,1,1,3,3,3,3,3,2,1,2,1,2,2,3,2,2,3,2,1,3,3,3,3,3,3,3,3,3,3,3,3,3,3,3,2,1,1,1,1,2,2,2,2,3,3,1,2,2,3,2,2,1,3,4,3,1,3,3,3,3,
3,3,1,1,1,1,3,3,2,3,3,2,2,2,2,1,1,3,1,3,1,3,2,2,3,3,3,1,3,2,2,2,3,3,2,2,2,3,3,3,2,1,1,3,2,1,1,1,3,2,2,2,2,3,3,2,3,1,3,1,3,3,4,3,
3,3,1,2,1,2,3,3,3,3,3,1,2,2,2,2,2,3,3,1,2,3,2,3,2,2,3,3,3,2,1,3,3,1,1,1,1,1,1,1,3,1,3,2,1,1,3,1,2,2,1,2,3,2,2,3,3,1,3,3,3,3,3,1,
3,3,3,1,1,2,3,3,3,3,3,1,2,2,1,3,3,2,2,2,2,2,3,2,2,1,1,3,3,2,3,2,3,1,1,1,1,1,1,1,1,3,1,2,3,3,3,2,2,3,3,3,1,2,2,1,3,3,3,3,3,3,3,1,
3,3,3,1,1,2,3,4,3,3,2,2,1,3,3,1,2,2,1,1,1,1,3,2,1,1,1,1,2,2,2,1,3,3,2,2,2,2,1,3,1,3,3,3,2,3,3,3,3,2,2,1,1,1,1,1,3,4,3,3,3,3,3,1,
3,3,1,3,1,2,3,3,3,2,2,2,4,3,2,2,2,1,4,1,2,3,2,2,1,1,1,1,2,2,2,2,3,3,3,3,3,3,3,3,3,3,3,3,3,3,1,1,1,2,2,4,2,2,2,1,3,1,1,3,3,3,3,4,
3,3,1,3,1,2,2,3,3,3,3,1,3,2,2,2,2,2,2,2,3,2,1,2,2,3,1,3,3,3,3,3,3,3,3,3,2,2,2,2,2,2,1,3,3,3,1,1,1,1,1,1,2,2,2,1,3,1,1,3,3,2,2,3,
3,3,4,3,1,3,1,3,3,3,3,3,1,3,2,2,2,2,2,3,1,2,2,2,3,3,3,1,1,3,1,2,2,2,2,3,3,2,2,2,2,2,1,1,3,1,1,1,1,1,1,1,2,2,2,1,3,1,1,3,3,2,2,1,
3,3,1,2,3,3,1,3,3,3,3,3,1,2,2,2,2,2,3,3,3,3,3,3,2,1,1,1,1,1,1,2,2,1,3,2,3,2,2,2,2,1,1,1,3,1,1,1,3,1,1,1,1,2,2,2,3,1,1,3,3,2,2,1,
3,3,1,2,1,1,4,3,3,3,3,2,4,3,1,3,3,3,1,1,1,3,1,3,1,2,2,2,1,1,2,2,3,3,1,1,3,1,1,2,2,1,1,1,1,3,3,1,1,1,1,1,1,2,2,4,3,1,1,3,3,2,4,1,
3,3,1,2,1,2,1,1,3,3,3,2,3,3,3,1,1,1,3,1,1,3,3,1,1,2,2,2,2,2,2,2,3,3,3,1,3,3,2,2,2,1,1,1,3,1,1,1,1,1,1,1,2,2,1,3,1,1,1,3,2,2,2,2,
3,3,1,1,2,2,1,2,3,3,3,3,3,3,1,1,3,2,2,3,3,1,1,2,2,3,3,3,2,2,2,3,3,3,3,1,3,1,2,1,2,1,1,1,3,3,3,3,1,1,1,1,1,1,1,1,1,1,1,3,3,3,2,2,
3,3,1,1,2,2,2,2,3,3,3,3,3,3,3,3,2,2,2,2,2,2,2,2,3,1,1,2,2,2,3,2,2,2,2,2,2,3,2,1,1,1,1,1,2,2,2,2,3,3,3,1,1,1,1,1,1,1,1,3,3,1,1,1,
3,3,1,1,2,2,1,3,2,3,3,3,3,3,3,3,4,2,2,2,2,2,2,2,2,2,2,2,2,3,2,2,2,2,2,2,2,3,1,1,1,1,1,1,2,4,1,1,2,2,3,3,1,1,1,1,1,1,1,3,3,1,4,1,
3,3,1,2,2,2,4,3,2,3,3,3,3,3,3,3,4,1,1,2,2,2,3,3,3,3,3,3,3,2,2,3,3,3,3,1,1,3,1,1,1,1,1,1,2,2,1,1,1,1,1,3,3,1,1,1,1,1,1,3,1,1,1,1,
3,3,2,2,1,1,1,3,2,3,3,2,2,2,3,3,2,3,1,2,2,2,2,3,3,2,3,2,2,2,2,2,2,3,3,1,2,1,3,1,1,1,1,1,3,3,2,2,2,2,2,2,4,2,1,1,1,4,1,3,1,1,1,1,
3,2,2,1,1,1,1,3,2,1,3,2,3,2,3,2,2,2,3,3,2,2,3,3,3,3,2,2,2,2,2,2,2,1,3,2,1,1,4,1,1,1,1,1,4,3,1,1,2,2,2,2,3,2,1,1,1,1,1,1,4,1,1,1,
3,3,2,2,2,2,1,3,3,3,3,2,2,2,3,2,2,2,2,2,3,3,3,3,3,2,2,2,2,2,2,2,2,2,2,2,1,1,3,1,1,1,1,1,4,3,1,1,1,1,3,3,3,2,2,2,1,1,1,1,1,1,1,1,
3,3,2,2,4,2,2,3,4,1,1,3,4,2,3,2,2,2,2,2,2,3,3,2,2,2,2,2,4,2,2,2,2,1,2,4,2,1,1,3,1,1,1,1,1,3,1,1,1,1,3,3,1,1,1,2,2,2,2,1,1,1,1,3,
3,3,2,1,1,2,2,3,1,1,1,3,3,2,2,3,4,2,2,3,3,3,3,4,3,2,2,2,2,2,2,1,3,2,2,2,1,2,2,3,2,2,1,1,1,3,3,3,3,3,3,1,1,1,1,1,1,1,1,1,1,1,3,1,
3,3,2,2,2,2,2,3,3,1,1,1,3,2,2,3,2,2,1,3,1,1,2,1,1,3,3,1,1,3,2,2,2,2,2,2,1,2,2,2,3,2,2,4,1,3,3,4,3,1,1,1,1,1,1,4,1,1,1,1,1,3,1,1,
3,1,1,2,2,2,2,2,2,3,3,3,3,2,2,2,3,1,3,1,2,2,2,2,2,2,3,3,3,4,2,2,2,4,2,2,4,4,2,2,3,2,2,2,1,1,1,1,1,1,1,1,1,1,1,1,1,1,1,3,3,1,1,1,
3,1,3,2,2,2,3,2,2,2,2,2,2,3,3,3,3,3,3,3,2,2,2,2,2,2,2,2,2,3,3,3,3,3,3,2,2,2,2,2,2,3,3,1,2,2,2,1,1,1,1,1,1,1,1,1,1,3,3,1,1,1,1,1,
3,3,3,2,2,2,2,2,2,2,2,1,2,2,2,2,2,1,2,2,3,3,4,3,2,2,2,2,2,2,2,2,3,3,3,3,3,3,2,2,2,2,3,2,2,2,2,2,4,2,2,2,2,2,2,3,3,2,2,1,1,1,1,1,
3,3,3,3,2,3,1,3,4,2,2,2,2,2,2,1,1,1,1,1,1,4,1,1,3,3,3,2,2,2,2,2,2,4,2,2,2,2,3,3,3,3,3,2,1,1,1,2,2,2,2,3,3,3,3,2,2,2,1,1,1,1,1,1,
3,3,3,3,3,3,3,2,2,2,2,2,2,1,4,1,2,2,2,2,2,2,2,2,2,2,2,3,3,3,3,3,3,3,3,2,4,1,1,2,1,1,3,3,4,3,3,3,3,3,3,3,3,2,2,3,3,2,1,1,1,1,4,1,
1,3,4,3,3,3,3,3,3,3,1,1,1,2,2,3,3,2,2,2,3,3,3,3,3,3,3,4,3,3,3,2,3,2,2,3,3,3,3,3,3,1,1,1,1,1,3,3,3,3,2,2,2,2,2,2,4,2,1,1,1,1,1,1,
1,3,3,3,3,1,3,3,3,3,3,3,3,2,2,2,1,1,1,1,2,2,2,2,2,2,2,2,2,1,1,1,1,1,2,1,1,3,3,3,3,3,3,3,2,2,2,2,2,2,2,2,2,2,2,1,2,2,1,1,1,1,1,1,
1,3,3,3,3,3,3,3,3,3,3,3,3,3,2,3,3,3,3,1,1,1,2,2,2,2,2,2,2,2,1,1,1,1,1,3,3,2,2,2,2,2,2,2,2,2,2,2,2,2,2,4,2,2,2,2,2,2,1,1,1,1,1,1,
1,3,3,3,3,3,3,4,3,3,1,3,1,1,3,2,3,3,3,3,3,3,2,2,2,2,2,2,3,3,3,3,3,3,3,1,2,2,2,2,3,3,3,3,3,1,1,3,2,2,2,2,2,2,2,2,2,2,1,1,1,1,1,1,
1,3,3,3,4,3,3,1,3,3,1,4,3,3,3,2,4,3,3,3,3,3,3,3,3,3,3,3,3,3,3,3,3,3,3,3,2,2,3,3,3,4,3,3,2,2,4,2,2,2,2,2,2,2,2,2,2,2,2,1,4,1,1,1,
1,3,3,3,3,3,3,3,3,3,3,3,3,3,3,3,1,1,1,1,1,1,3,3,3,3,4,3,3,3,3,3,3,3,3,3,2,3,3,3,3,3,3,3,3,3,3,3,3,2,2,2,2,2,2,4,1,2,2,1,1,1,1,1,
3,3,3,3,3,3,3,3,3,3,3,3,3,3,3,3,3,3,3,3,3,3,3,3,3,3,3,3,3,3,3,3,4,3,3,3,4,3,3,3,3,3,3,3,3,3,3,3,3,3,2,2,2,1,1,2,2,2,2,2,1,1,1,1,
3,1,4,3,3,3,3,1,3,1,1,1,1,1,1,1,1,1,1,3,3,3,3,3,3,4,3,3,3,3,3,3,3,3,3,3,3,3,3,3,3,3,3,1,1,1,4,3,3,3,3,1,1,1,1,2,2,2,2,2,1,1,1,1,
1,1,3,1,1,1,3,1,1,1,1,1,1,1,1,4,1,1,1,3,3,3,3,3,3,3,3,3,3,3,3,3,3,3,3,3,3,3,3,3,3,4,3,3,3,3,3,3,3,3,3,3,3,3,3,3,3,1,1,1,1,1,1,1,
3,3,1,1,1,4,1,3,3,1,1,1,1,1,1,1,1,3,3,3,4,1,1,1,1,1,1,1,1,1,1,1,3,3,3,1,1,1,3,3,3,3,3,3,3,3,3,1,1,1,1,1,1,1,1,1,1,1,1,1,1,1,4,1,
1,1,1,1,1,1,1,1,1,3,3,4,3,3,3,3,3,1,1,1,1,1,1,1,1,1,1,1,1,1,1,3,3,1,1,4,1,1,1,1,1,1,1,1,1,4,1,1,1,1,1,1,1,1,4,1,1,1,1,1,1,1,1,1
</data>
 </layer>
</map>
